X:1
T:Title
%%score 1 2
L:1/8
Q:1/4=110
M:4/4
K:Ab
V:1 treble nm="Grand Piano, Soprano"
V:2 bass nm="Choir Pad, Almaden, 85.85.85"
V:1
 [Ec]3 [Ec] [DB]2 [CA]2 | [=EG]2 [FA]2 F2 [FA]2 | [CE]2 [CA]2 [Ed]2 [Ec]2 | [EB]6 z2 | %4
w: By~S.~H.~Price,~1874 * * *||||
 [Ec]3 [Ec] [DB]2 [CA]2 | [=EG]2 [FA]2 F2 [FA]2 | [CE]2 [CA]2 [Ec]2 [DB]2 | [CA]6 z2 | %8
w: ||||
 [Ac]3 [Ac] [Ae]2 [Gd]2 | [Ac]2 [GB]2 [FA]2 [=DA]2 | [EB]3 [=DA] [EG]2 [DF]2 | E6 z2 | %12
w: ||||
 [Ec]3 [Ec] [DB]2 [CA]2 | [=EG]2 [FA]2 F2 [FA]2 | [CE]2 [CA]2 [Ec]2 [DB]2 | [CA]8 |] %16
w: ||||
V:2
 A,3 A, [=E,G,]2 F,2 | [C,C]2 [F,C]2 [D,D]2 [=D,B,]2 | [E,A,]2 [E,A,]2 [G,B,]2 A,2 | [E,G,]6 z2 | %4
 A,3 A, [=E,G,]2 F,2 | [C,C]2 [F,C]2 [D,D]2 [=D,B,]2 | [E,A,]2 [E,A,]2 [E,A,]2 [G,,E,]2 | %7
 [A,,E,]6 z2 | [A,E]3 [A,E] [CE]2 [B,E]2 | [A,E]2[K:bass] [=E,D]2 [F,C]2 [F,B,]2 | %10
 [G,B,]3 [F,B,] [E,B,]2 [B,,A,]2 | [E,G,]6 z2 | A,3 A, [=E,G,]2 F,2 | %13
 [C,C]2 [F,C]2 [D,D]2 [=D,B,]2 | [E,A,]2 [E,A,]2 [E,A,]2 [G,,E,]2 | [A,,E,]8 |] %16

